icons/restaurant-2-fill.svg

<svg viewBox="0 0 24 24" fill="currentColor" xmlns="http://www.w3.org/2000/svg">
    <path d="M4.22235 3.80753L10.9399 10.525L8.11144 13.3535L4.22235 9.46438C2.66026 7.90229 2.66026 5.36963 4.22235 3.80753ZM14.2683 12.1464L13.4147 12.9999L20.4858 20.071L19.0716 21.4852L12.0005 14.4141L4.92946 21.4852L3.51525 20.071L12.854 10.7322C12.2664 9.27525 12.8738 7.1769 14.4754 5.5753C16.428 3.62268 19.119 3.1478 20.4858 4.51464C21.8526 5.88147 21.3778 8.57242 19.4251 10.525C17.8235 12.1267 15.7252 12.7341 14.2683 12.1464Z"/>
</svg>

<svg xmlns="http://www.w3.org/2000/svg" viewBox="0 0 24 24">
    <g>
        <path fill="none" d="M0 0h24v24H0z"/>
        <path d="M4.222 3.808l6.717 6.717-2.828 2.829-3.89-3.89a4 4 0 0 1 0-5.656zm10.046 8.338l-.854.854 7.071 7.071-1.414 1.414L12 14.415l-7.071 7.07-1.414-1.414 9.339-9.339c-.588-1.457.02-3.555 1.62-5.157 1.953-1.952 4.644-2.427 6.011-1.06s.892 4.058-1.06 6.01c-1.602 1.602-3.7 2.21-5.157 1.621z"/>
    </g>
</svg>
